X: 1877
T: Snake In the Long Grass
B: australian traditional tunes wiki
M:4/4
L:1/8
R: Step Tune
Q: 1/4=100
K:D
V:1 
(3EGc|"D"d2(3FAF DF Ad|"A"cB GF B4|Bd cB AG FE|"D"D2(3DFA "A"B3A|
"D"d2(3FAF DF Ad|"A"cB GF B4|Bd cB AG FE|"D"Dd AF D2"A"E2|
"A"ED (3FAF "D"D2[D2F2]|[DF]G "A"(3BcB G2B2|ED (3FAF "D"D2FD|"A"A,C (3EGE C2[C2E2]|
"A"ED (3FAF "D"D2[D2F2]|"A"[DF][EG] (3BcB G2[G2B2]|"A"Bd cB AG FE|"D"Dd "A"AF "D"[D2d2](3GBc||
% abcbook-tune_id 6342d53a576a9e75066fe15c


% abcbook-boost 0
% abcbook-tablature 
% abcbook-transpose 
% abcbook-lastupdated 1665324389906
% abcbook-soundfonts 
% abcbook-repeats 1
% NFF Book 2018

